X:979
T:Hair Fell Off My Coconut, The
O:ireland
R:slide
H:Originally a Scottish march
Z:id:hn-slide-63
M:6/8
L:1/8
W:The hair fell off my coconut,
W:The hair fell off my coconut,
W:The hair fell off my coconut,
W:And how do you like it baldy
K:A
c2E EDE|F2A A2f|e2c BAB|cec BAB|
c2E EDE|F2A A2f|e2c BcB|1 A3 A2B:|2 A3 A3||
|:c2e ede|f2a agf|e2c BAB|c2B BAB|
c2e ede|f2a agf|e2c BcB|1 A3 A3:|2 A3 A2B||
